X:617
T: "Der Vogler"
N: Z1297
O: Europa, Mitteleuropa, Oesterreich
R: Jaeger - Lied
M: 3/4
L: 1/16
K: E
B3G | E4E4E2E2 | E2c2c6
B2 | B4A4G4 | F8
B2G2 | E4E4E4 | E2c2c6
B2 | A4G4F4 | E4z6
F2 | G4G4F4 | E4E4
G4 | B4A4G4 | F8
B3G | E4E4E2E2 | E2c2c6
B2 | A4G4F4 | E4z4

